X:1753
T:Miserere
T:Psalm 51
C:Antonio Lotti
O:Italy
Z:Transcribed by Frank Nordberg - http://www.musicaviva.com
F:http://abc.musicaviva.com/tunes/lotti-antonio/lotti-miserere/lotti-miserere-voca4.abc
V:1 Program 1 40 %Violin
V:2 Program 2 40 %Violin
V:3 Program 3 41 alto %Viola
V:4 Program 4 42 bass %Cello
M:C
L:1/8
Q:1/4=144
K:F
V:1
z8|z8|z8|z8|
V:2
z8|z8|z8|D4 D4|
w:Mi-se-
V:3
z8|D,4 D,4|B,8|A,8|
w:Mi-se-re-re,
V:4
D,4 D,4|A,8-|A,2 G,F, G,4-|G,2 F,E, F,4|
w:Mi-se-re--------re,
%
V:1
D4 D4|B8|A8|G6 G2|
w:Mi-se-re-re, me-i,
V:2
A8-|A2 G^F G4-|G2 FE F4-|F2 ED E4-|
w:re----re___ me----i,
V:3
A,4 D4|D4 E4-|E4 D4-|D4 A,4|
w:mi-se-re-re_ me--i,
V:4
^F,4 F,4|G,4 E,4|^C,4 =D,4|=B,,4 ^C,4|
w:mi-se-re-re me-i, De--
%
V:1
F8|E8|A4 A2 A2|B4 B4|
w:De-us se-cun-dum mag-nam
V:2
E2 DC D4-|D2 C=B, C4|z2 E2 F2 F2|E4 E4|
w:*** De----us, se-cun-dum mag-nam
V:3
A,4 ^G,4|A,8|z2 C2 D2 D2|C4 C4|
w:De--us, se-cun-dum mag-nam
V:4
D,8|A,,8|A,4 A,2 A,2|G,4 G,4|
%
w:-us se-cun-dum mag-nam
V:1
z2 A2 A2 A2|^G3G G4|z2 =G2 G2 G2|F3F F4|
w:mi-se-ri-cor-di-am, mi-se-ri-cor-di-am
V:2
z2 A,2 D2 D2|D3D D4|z2 C2 C2 E2|E2 D2 D4|
w:mi-se-ri-cor-di-am, mi-se-ri-cor-di-am
V:3
z2 D2 A,2 A,2|=B,3B, B,4|z2 E2 E2 A,2|A,3A, A,4|
w:mi-se-ri-cor-di-am, mi-se-ri-cor-di-am
V:4
z2 F,2 F,2 F,2|E,3E, E,4|z2 A,,2 A,,2 A,,2|D,3D, D,4|
w:mi-se-ri-cor-di-am, mi-se-ri-cor-di-am
%
V:1
E8|F8|z8|z8|
w:tu-am.
V:2
D2 C=B, C4|D8|z2 A4 A2|G3F G2 E2|
w:tu----am. Et se-cun-dum mul-ti-
V:3
A,8|A,2 D4 D2|C3B, C2 A,2|B,6 C2|
w:tu-am. Et se-cun-dum mul-ti-tu-di-
V:4
A,,8|D,8|z8|z8|
w:tu-am.
%
V:1
z4 A3B|c3d e2 c2|c2 BA ^G2 A2-|A2 ^G2 A2 c2-|
w:mi-se-ra-ti-o-num tu---a----rum, de--le i-ni-qui-ta-tem me-am.
V:2
F3F F4|E3E E2 A2|F2 FF E4-|E4 E2 E2-|
w:tu-di-nem mi-se-ra-ti-o-num tu-a--rum, de-
V:3
D4 D3D|C6 DE|D6 CC|=B,4 C2 C2-|
w:nem mi-se-ra-ti--o-num tu-a-rum, de-
V:4
D,3E, F,3G,|A,3B, C2 C,2|D,4 E,4-|E,4 A,,2 A,2-|
w:mi-se-ra-ti-o---num tu-a--rum, de-
%
V:1
c2 A4 A2|B3B B2 A2|G4 HA4|]
w:-le i-ni-qui-ta-tem me-am.
V:2
E2 F4 F2|D3D G2 F2|F2 E2 HF4|]
w:-le i-ni-qui-ta-tem me--am.
V:3
C2 D4 D2|B,3B, C2 C2|C4 HC4|]
w:-le i-ni-qui-ta-tem me-am.
V:4
A,2 F,4 F,2|G,3G, E,2 F,2|C,4 HF,4|]
w:-le i-ni-qui-ta-tem me-am.
W:
W:Miserere mei, Deus, secundum magnam misericordiam tuam.
W:Et secundum multitudinem miserationum tuarum, dele iniquiatatem meam.
W:
W:
W:  From Musica Viva - http://www.musicaviva.com
W:  the Internet center for free sheet music downloads.

